X:735
T:Typiska polskan
C:Åsa Jinder
R:Polska
O:
D:Åsa Jinder - 1985 (1985). Spår B4 "Typiska polskan till Lotta Nygårds"
M:3/4
L:1/8
K:G

|: DC | (B,>A,) (B,>D) G>F | E2 (C>E) A>G | (F>D) (F>A) d>c |
B2 (B1/2c1/2B1/2A1/2) G>D | (B,>A,) (B,>D) GF | E2 (C>E) A>G | (F>D) (F>A) d>F |
[1 G2 G2 :|[2 G2 G4]|: {B}de (dc) B>d | c2 A3 A | {G}(FD) (FA) d>c |
B2 (B1/2c1/2B1/2A1/2) G2 | {B}(de) (dc) B>d | c2 A3 A | {G}(FD) (FA) d>c |
G2 G4 :|

(:musicend:)

%green% Fråga: vad är denna polskas koppling till Gotland? Lägger till i [[!lite information]] så länge. / Erik

%green%-Det finns en gård som heter Nygårds söder om Visby, men denna polskan låter inte gotländsk. /Anders
(:music:)
